X:1
T:Title
%%score { ( 1 2 5 ) | ( 3 4 ) }
L:1/8
Q:1/4=120
M:6/4
K:Eb
V:1 treble nm="Grand Piano"
V:2 treble 
V:5 treble 
V:3 bass 
V:4 bass 
V:1
 z z/ G/- G4- G3/2 z/ z2 z2 | z12 | z z/ =g/- g4- g>f- f4- | f>e- e4- e6- | e6 z6 | %5
 z6 z z/ B/- B4- | B>B- B4- B>[K:bass][E,E]- [E,E]3- [E,E]/ z/ | z z/ D/- D4- D6- | %8
 D6[K:treble] z6 | z12 | z12 | z z/ [DFB]/- [DFB]4- [DFB]6- | [DFB]6 z6 | z6 z z/ B/- B4- | %14
 B6 z z/ d/- d3- d/ z/ | z z/ =B/- B4- B>_B- B4- | B6 z6 | z12 | z z/ B/- B4- B>B- B4- | %19
[M:15/8] B3/2B3/2- B3- B3- B6- |[M:6/4] B>e- e4- e>d- d3- d/ z/ | z z/ c/- c4- c>G- G3- G/ z/ | %22
 z12[K:bass] | z z/ D/- D4- D6- | D>[K:treble]d- d4- d>c- c3- c/ z/ | z z/ B/- B4- B>F- F3- F/ z/ | %26
 z12 | z z/ G/- G4- G6- | G>e- e4- e>d- d3- d/ z/ | z z/ c/- c4- c>G- G3- G/ z/ | z12 | %31
 z z/ c/- c4- c6- | c6 z6 | z12 | z z/ =g/- g4- g>f- f4- | f>e- e4- e6- | e6 z6 |] %37
V:2
 B/c/d/e/- e>d- d>c- c>[GB]- [GB]>[EG]- [EG]>[FA]- | %1
 [FA]>[EGB]- [EGB]>[EAc]- [EAc]>[DAd]- [DAd]>[EGe]- [EGe]>[FAf]- [FAf]>[_G=Ae_g]- | %2
 [GAeg]3 z/ e/- e>e- e3/2 z/ z z/ d/- d>d- | d>E- E/-[G,E-][B,E]/- [B,E]/ z/ z/ G/- G/ z/ z z2 z2 | %4
 z z/ G/- G>G- G>G- G>[EG]- [EG]>A- A>=A- | A>[EGB]- [EGB]>c- c>G- G3/2 z/ z z/ G/- G>G- | %6
 G3 z/ G/- G>[G,B,EG]- [G,B,EG]3/2[K:bass] z/ z z/ B,/- B,>[=E,G,B,C]- | %7
 [E,G,B,C]3 z/ B,/- B,>[A,B,]- [A,B,]3/2 z/ z z/ [A,B,]/- [A,B,]>[A,B,]- | %8
 [A,B,]>[K:treble]A- A>A- A>A- A>[B,DA]- [B,DA]>[B,DG]- [B,DG]>[B,DF]- | %9
 [B,DF]>[B,EG]- [B,EG]>[EA]- [EA]>[E=A]- [EA]>[EB]- [EB]3- [EB]/[EBc]/- | %10
 [EBc]>[FBd]- [FBd]>e- e>d- d>[EFc]- [EFc]>[EF]- [EF]>[EFc]- | %11
 [EFc]3 z/ C/- C>B,- B,>A,- A,>F,- F,>D,- | D,>[B,DB]- [B,DB]>A- A>F- F>C- C>D- D>G- | %13
 G>[B,F]- [B,F]>E- E>G- G3/2 z/ z z/ G/- G>G- | G>c- c>=B- B>c- c3/2 z/ z z/ =A/- A>c- | %15
 c3 z/ G/- G>G- G3/2 z/ z z/ [DFA]/- [DFA]>[DFA]- | %16
 [DFA]>[EGe]- [EGe]>d- d>c- c>[EGB]- [EGB]>[B,EG]- [B,EG]>[EGB]- | %17
 [EGB]>[C=EGc]- [CEGc]>[CEG]- [CEG]>[CGB]- [CGB]>[CFA]- [CFA]>[CEG]- [CEG]>[CF]- | %18
 [CF]3 z/ F/- F>F- F3/2 z/ z z/ G/- G>G- | %19
[M:15/8] G3/2[B,DFA]->[B,DFA][DFA]-<[DFA][_D=EG]-<[DEG][B,=DFA]3/2- [B,DFA]6- | %20
[M:6/4] [B,DFA]3 z/ B/- B>B- B3/2 z/ z z/ G/- G>c- | c3 z/ G/- G>G- G3/2 z/ z z/ E/- E>[CEA]- | %22
 [CEA]>[EGB]- [EGB]>[EAc]- [EAc]>[EGB]- [EGB]>[B,EG]- [B,EG]>[B,EGB]- [B,EGB]>[K:bass][G,B,E]- | %23
 [G,B,E]3 z/ B,/- B,>[A,B,]- [A,B,]>[A,B,]- [A,B,]>[A,B,]- [A,B,]>[A,B,]- | %24
 [A,B,]3[K:treble] z/ B/- B>B- B3/2 z/ z z/ A/- A>B- | B3 z/ A/- A>A- A3/2 z/ z z/ D/- D>[B,EG]- | %26
 [B,EG]>[A,FA]- [A,FA]>[B,GB]- [B,GB]>[CAc]- [CAc]>[DBd]- [DBd]>[CAc]- [CAc]>[A,FA]- | %27
 [A,FA]3 z/ [B,E]/- [B,E]>E- E>E- E>E- E>[B,E]- | [B,E]3 z/ B/- B>B- B3/2 z/ z z/ G/- G>c- | %29
 c3 z/ G/- G>G- G3/2 z/ z z/ E/- E>c- | %30
 c>[=Ec]- [Ec]>[_DE_d]- [DEd]>[Ec]- [Ec]>[CFA]- [CFA]>[CEG]- [CEG]>[CF]- | %31
 [CF]>[A,CF]- [A,CF]>[G,C=E]- [G,CE]>[A,CF]- [A,CF]>[CF]- [CF]>[EG]- [EG]>[FA]- | %32
 [FA]>[FAc]- [FAc]>=B- B>c- c>e- e>d- d>c- | %33
 c>[EGB]- [EGB]>[EAc]- [EAc]>[B,DFd]- [B,DFd]>[EGe]- [EGe]>[EFAf]- [EFAf]>_g- | %34
 g3 z/ e/- e>e- e3/2 z/ z z/ d/- d>d- | d3 z/ B,,/- B,,>G,,- G,,3/2 z/ z2 z2 | x12 |] %37
V:3
 z2 z z/ [G,B,]/- [G,B,]>[G,B,]- [G,B,]3/2 z/ z z/ [G,B,]/- [G,B,]>[G,B,]- | %1
 [G,B,]>[E,,E,]- [E,,E,]>[A,,A,]- [A,,A,]>[F,,F,]- [F,,F,]>[E,,E,]- [E,,E,]>[C,C]- [C,C]>[=B,,=B,]- | %2
 [B,,B,]3[K:treble] z/ [GB]/- [GB]>[GB]- [GB]3/2 z/ z z/ [FAB]/- [FAB]>[FAB]- | %3
 [FAB]>[K:bass][E,,E,]- [E,,E,]>B,,,- B,,,3/2 z/ z/[K:treble] B[K:bass]E,,,/- E,,,4- | %4
 E,,,3 z/ [G,B,E]/- [G,B,E]>[G,B,E]- [G,B,E]3/2 z/ z z/ F/- F>_G- | %5
 G3 z/ [EA]/- [EA]>E- E3/2 z/ z z/ [B,E]/- [B,E]>[B,E]- | %6
 [B,E]3 z/ E/- E>G,,- G,,3/2 z/ z z/ G,/- G,>=E,,- | %7
 E,,>[F,,F,]- [F,,F,]>[G,,G,]- [G,,G,]>[F,,F,]- [F,,F,]>[D,,D,]- [D,,D,]>[C,,C,]- [C,,C,]>[=B,,,=B,,]- | %8
 [B,,,B,,]3 z/ [B,D]/- [B,D]>[B,D]- [B,D]>[_B,,,B,,]- [B,,,B,,]>[C,,C,]- [C,,C,]>[D,,D,]- | %9
 [D,,D,]>[E,,E,]- [E,,E,]>[F,,F,]- [F,,F,]>[_G,,_G,]- [G,,G,]>[=G,,=G,]- [G,,G,]3- [G,,G,]/[_G,,_G,]/- | %10
 [G,,G,]3[K:treble] z/ [Fc]/- [Fc]>[FB]- [FB]>[K:bass][F,,F,]- [F,,F,]>[=G,,=G,]- [G,,G,]>[F,,F,]- | %11
 [F,,F,]>[B,,B,]- [B,,B,]>C,- C,>B,,- B,,>A,,- A,,>F,,- F,,>D,,- | %12
 D,,3 z/ [B,D]/- [B,D]>[B,D]- [B,D]>B,- B,>B,- B,>[B,D]- | %13
 [B,D]3 z/ B,/- B,>B,- B,3/2 z/ z z/ [B,E]/- [B,E]>[B,E]- | %14
 [B,E]3 z/ [CFA]/- [CFA]>[CFA]- [CFA]3/2 z/ z z/ D/- D>[D=A]- | %15
 [DA]3 z/ [DF]/- [DF]>[DF]- [DF]>[F,,F,]- [F,,F,]>[B,,,B,,]- [B,,,B,,]>[D,,D,]- | %16
 [D,,D,]3 z/ [EG]/- [EG]>[EG]- [EG]>[G,,G,]- [G,,G,]3- [G,,G,]/[E,,E,]/- | %17
 [E,,E,]>[C,,C,]- [C,,C,]3- [C,,C,]/[=E,,=E,]/- [E,,E,]>[F,,F,]- [F,,F,]>[G,,G,]- [G,,G,]>[A,,A,]- | %18
 [A,,A,]>B,- B,>[B,D]- [B,D]>[B,D]- [B,D]3/2 z/ z z/ [_D=E]/- [DE]>[DE]- | %19
[M:15/8] [DE]3 z/ B,-<B,B,-<B,B,,,3/2- B,,,6- | %20
[M:6/4] B,,,3 z/ [EG]/- [EG]>[EG]- [EG]3/2 z/ z z/ E/- E>[EG]- | %21
 [EG]3 z/ E/- E>E- E3/2 z/ z z/ C/- C>[F,,F,]- | %22
 [F,,F,]>[G,,G,]- [G,,G,]>[A,,A,]- [A,,A,]>[G,,G,]- [G,,G,]>[E,,E,]- [E,,E,]>[G,,G,]- [G,,G,]>[E,,E,]- | %23
 [E,,E,]>[F,,F,]- [F,,F,]>[G,,G,]- [G,,G,]>[F,,F,]- [F,,F,]>[D,,D,]- [D,,D,]>[C,,C,]- [C,,C,]>[=B,,,=B,,]- | %24
 [B,,,B,,]3 z/ [DFA]/- [DFA]>[DFA]- [DFA]3/2 z/ z z/ [DF]/- [DF]>[DFA]- | %25
 [DFA]3 z/ [B,DF]/- [B,DF]>[B,DF]- [B,DF]3/2 z/ z z/ B,/- B,>[E,,E,]- | %26
 [E,,E,]>[F,,F,]- [F,,F,]>[G,,G,]- [G,,G,]>[A,,A,]- [A,,A,]>[B,,B,]- [B,,B,]>[A,,A,]- [A,,A,]>[F,,F,]- | %27
 [F,,F,]>[E,,E,]- [E,,E,]>[G,,G,]- [G,,G,]>[B,,B,]- [B,,B,]>[C,C]- [C,C]>[B,,B,]- [B,,B,]>[G,,G,]- | %28
 [G,,G,]3 z/ [EG]/- [EG]>[EG]- [EG]3/2 z/ z z/ E/- E>[EG]- | %29
 [EG]3 z/ E/- E>E- E3/2 z/ z z/ B,/- B,>[E,G,E]- | %30
 [E,G,E]>[C,G,C]- [C,G,C]>[C,G,]- [C,G,]>[C,C]- [C,C]>[F,,F,]- [F,,F,]>[G,,G,]- [G,,G,]>[A,,A,]- | %31
 [A,,A,]>[F,,F,]- [F,,F,]>[C,,C,]- [C,,C,]>[F,,F,]- [F,,F,]>[A,,A,]- [A,,A,]>[G,,G,]- [G,,G,]>[F,,F,]- | %32
 [F,,F,]>A,,- A,,->[A,,A,FA]- [A,,-A,FA]>[A,,A,FA]- [A,,A,FA]>[=A,C_G]- [A,CG]>[A,DG]- [A,DG]>[A,EG]- | %33
 [A,EG]>[B,,B,]- [B,,B,]>[A,,_A,]- [A,,A,]>[F,,F,]- [F,,F,]>[E,,E,]- [E,,E,]>[C,C]- [C,C]>[=B,,CEF=A]- | %34
 [B,,CEFA]>[K:treble][GBe]- [GBe]>[GB]- [GB]>[GB]- [GB]>[F_ABd]- [FABd]>[FAB]- [FAB]>[FAB]- | %35
 [FAB]>[E,,E,B,EGB]- [E,,E,B,EGB]4- [E,,E,B,EGB]6- | [E,,E,B,EGB]6 z6 |] %37
V:4
 z z/ [E,,E,]/- [E,,E,]4- [E,,E,]>[E,,E,]- [E,,E,]4- | [E,,E,]6 z6 | %2
 z z/[K:treble] [_B,,_B,]/- [B,,B,]4- [B,,B,]>B,,- B,,4- | %3
 B,,4[K:bass] z z/ G,,,/- G,,,3/2[K:treble][K:bass] z/ z2 z2 | %4
 z z/ [E,,E,]/- [E,,E,]4- [E,,E,]>[B,,,B,,]- [B,,,B,,]4- | %5
 [B,,,B,,]>[E,,E,]- [E,,E,]4- [E,,E,]>[G,,G,]- [G,,G,]4- | %6
 [G,,G,]>[B,,B,]- [B,,B,]3- [B,,B,]/ z/ z z/ E,,/- E,,3- E,,/ z/ | x12 | %8
 z z/ [A,,,_B,,]/- [A,,,B,,]4- [A,,,B,,]3/2 z/ z2 z2 | x12 | %10
 z z/[K:treble] [E,,F,]/- [E,,F,]4- [E,,F,]3/2[K:bass] z/ z2 z2 | x12 | %12
 z z/ [B,,,B,,]/- [B,,,B,,]4- [B,,,B,,]>[B,,F,]- [B,,F,]4- | %13
 [B,,F,]>[E,,E,]- [E,,E,]4- [E,,E,]>[G,,G,]- [G,,G,]4- | %14
 [G,,G,]>[A,,A,]- [A,,A,]4- [A,,A,]>[_G,,_G,]- [G,,G,]4- | %15
 [G,,G,]>[=G,,=G,]- [G,,G,]4- [G,,G,]3/2 z/ z2 z2 | z z/ [E,,E,]/- [E,,E,]4- [E,,E,]3/2 z/ z2 z2 | %17
 x12 | z z/ B,,/- B,,4- B,,>[B,,B,]- [B,,B,]4- |[M:15/8] [B,,B,]3/2B,,3/2- B,,3- B,,3- B,,6- | %20
[M:6/4] B,,>[E,,E,]- [E,,E,]4- [E,,E,]>[B,,,B,,]- [B,,,B,,]4- | %21
 [B,,,B,,]>[E,,E,]- [E,,E,]4- [E,,E,]>[G,,G,]- [G,,G,]3- [G,,G,]/ z/ | x12 | x12 | %24
 z z/ [_B,,,_B,,]/- [B,,,B,,]4- [B,,,B,,]>[F,,F,]- [F,,F,]4- | %25
 [F,,F,]>[B,,F,]- [B,,F,]4- [B,,F,]>[D,,D,]- [D,,D,]3- [D,,D,]/ z/ | x12 | x12 | %28
 z z/ [E,,E,]/- [E,,E,]4- [E,,E,]>[B,,,B,,]- [B,,,B,,]4- | %29
 [B,,,B,,]>[E,,E,]- [E,,E,]4- [E,,E,]>[G,,G,]- [G,,G,]3- [G,,G,]/ z/ | x12 | x12 | %32
 z z/ A,/- A,3/2 z/ z2 z z/ [A,,E]/- [A,,E]3- [A,,-E]/A,,/- | A,,6 z6 | %34
 z z/[K:treble] [_B,,B,E]/- [B,,B,E]4- [B,,B,E]>[B,,B,D]- [B,,B,D]4- | [B,,B,D]6 z6 | x12 |] %37
V:5
 x12 | x12 | x12 | z2 z2 z/ E3/2- E6- | E6 z6 | x12 | x15/2[K:bass] x9/2 | x12 | %8
 x3/2[K:treble] x21/2 | x12 | x12 | x12 | x12 | x12 | x12 | x12 | x12 | x12 | x12 |[M:15/8] x15 | %20
[M:6/4] x12 | x12 | x23/2[K:bass] x/ | x12 | x3/2[K:treble] x21/2 | x12 | x12 | x12 | x12 | x12 | %30
 x12 | x12 | x12 | x12 | x12 | x12 | x12 |] %37

